img/svg-fairy.svg

<svg width="16" height="16" viewBox="0 0 16 16" fill="none" xmlns="http://www.w3.org/2000/svg">
<path fill-rule="evenodd" clip-rule="evenodd" d="M3.21029 12.6872L5.77669 11.9431L7.99333 15.9961C7.99623 16.0013 8.00377 16.0013 8.00664 15.9961L10.2233 11.9431L12.7897 12.6872C12.7955 12.6889 12.8008 12.6835 12.7991 12.6778L12.0548 10.1622L15.996 8.00664C16.0013 8.00377 16.0013 7.99623 15.9961 7.99336L12.0223 5.82004L12.7991 3.19464C12.8008 3.18889 12.7955 3.18354 12.7897 3.1852L10.1631 3.94682L8.00664 0.00394351C8.00377 -0.00131441 7.99623 -0.00131455 7.99336 0.00394338L5.83691 3.94682L3.21029 3.1852C3.20454 3.18354 3.1992 3.18889 3.20092 3.19464L3.97766 5.82004L0.00394351 7.99336C-0.00131441 7.99623 -0.00131455 8.00377 0.00394338 8.00664L3.94516 10.1622L3.20092 12.6778C3.1992 12.6835 3.20454 12.6889 3.21029 12.6872ZM5.2018 8.02764L7.01995 9.02202L8.01433 10.8401C8.0172 10.8454 8.02477 10.8454 8.02764 10.8401L9.02202 9.02202L10.8401 8.02764C10.8454 8.02477 10.8454 8.0172 10.8401 8.01433L9.02202 7.01995L8.02764 5.20183C8.02477 5.19655 8.0172 5.19655 8.01433 5.20183L7.01995 7.01995L5.2018 8.01433C5.19655 8.0172 5.19655 8.02477 5.2018 8.02764Z" fill="#E296E1"/>
</svg>

<svg width="16" height="16" fill="none" xmlns="http://www.w3.org/2000/svg"><path fill-rule="evenodd" clip-rule="evenodd" d="m3.21 12.687 2.567-.744 2.216 4.053c.003.005.01.005.014 0l2.216-4.053 2.567.744a.008.008 0 0 0 .01-.01l-.745-2.515 3.941-2.155a.008.008 0 0 0 0-.014L12.022 5.82l.777-2.625a.008.008 0 0 0-.01-.01l-2.626.762L8.007.004a.008.008 0 0 0-.014 0L5.837 3.947 3.21 3.185a.008.008 0 0 0-.01.01l.778 2.625L.004 7.993a.008.008 0 0 0 0 .014l3.941 2.155-.744 2.516a.008.008 0 0 0 .01.01Zm1.992-4.66 1.818.995.994 1.818c.003.005.01.005.014 0l.994-1.818 1.818-.994a.008.008 0 0 0 0-.014L9.022 7.02l-.994-1.818a.008.008 0 0 0-.014 0L7.02 7.02l-1.818.994a.008.008 0 0 0 0 .014Z" fill="#E296E1"/></svg>
